X:167
T:Blue Beard’s March. JGi.167
M:C
L:1/8
Q:1/4=150
S:Joshua Gibbons MS,1823,Tealby,Lincs.
R:march
O:Tealby,Lincolnshire
Z:VMP/R.Greig, 2009
K:C
g3fe2d2|c4d4|edef agfe|d2d>dd2z2|g3fe2d2|c4d4|edefe2d2|c2c>cc2z2:|
|:d3cB2c2|d4e4|f3g agfe|d2d>dd2z2|d3cB2c2|d2d2d2e2|d2c2B2A2|G2G>GG2″DC”z2:|

